X:1
T:Title
%%score ( 1 2 ) ( 3 4 )
L:1/8
Q:1/4=85
M:2/4
K:Bb
V:1 treble nm="Grand Piano, Soprano"
V:2 treble 
V:3 bass nm="Choir Pad, Now He Lives"
V:4 bass 
V:1
 [DF][DF] [DF]2 | [DB][DB] [DB]2 | [EB][EA] [EA][EB] | [Ec]4 | [EF][EF] [EF]2 | [Ec][Ec] [Ec]2 | %6
w: By~Clinton~Dudley~Lowden * *||||||
 [Dc][DB] [FB][Fc] | [Fd]4 | [FG][FG] [FG]2 | [Fd][Fd] [Fd]2 | [Fd][Ec] [Gc][Gd] | [Ge]4 | %12
w: ||||||
 [=Ed][EG] [EG]2 | [=Ed][EG] [EG]2 | [E^F][=EG] [EA][EB] | [Ec]4 | z [DFB] z [DFB] | %17
w: |||||
 z [FB] z [DFB] | z [EGB] z [EGB] | z [DFB]/[DFB]/ [DFB][DFB] | [B,D]2 [CF]2 | [DB][DB] [DA][DG] | %22
w: |||||
 [FA]2 [=Ec]2 | c4 | z [DFB] z [DFB] | z [FB] z [DFB] | z [EGB] z [EGB] | z [^FA]/[FA]/ [FA][FA] | %28
w: ||||||
 [Fd]2 [FG]2 | [Ge][Ge] [Gd][Gc] | [FB]2 [EA]2 | [DB]4- | [DB]4 |] %33
w: |||||
V:2
 x4 | x4 | x4 | x4 | x4 | x4 | x4 | x4 | x4 | x4 | x4 | x4 | x4 | x4 | x4 | z F/F/ FF | x4 | x4 | %18
 x4 | x4 | x4 | x4 | x4 | F2 E2 | x4 | x4 | x4 | x4 | x4 | x4 | x4 | x4 | x4 |] %33
V:3
 [B,,B,][B,,B,] B,A, | [B,,_A,][B,,A,] [B,,A,]2 | [C,G,][C,F,] F,[F,G,] | [F,A,]4 | %4
 [A,C][A,C] [A,C][G,B,] | [F,A,][F,A,] [F,A,]2 | [B,,F,][B,,F,] [D,B,][F,A,] | B,4 | %8
 [=B,D][B,D] [B,D][A,C] | [G,=B,][G,B,] [G,B,]2 | [C,G,][C,G,] [E,C][G,=B,] | C4 | %12
 [C,B,][C,B,] [C,B,]2 | [C,B,][C,B,] [C,B,]2 | [C,A,][C,B,] [C,A,][C,G,] | A,4 | D,2 F,2 | D2 CB, | %18
 A,2 B,2 | F,4 | [B,,F,]2 [A,,F,]2 | [G,,G,][G,,G,] [A,,^F,][B,,G,] | [C,C]2 [C,B,]2 | [F,A,]4 | %24
 D,2 F,2 | D2 CB, | G,2 B,2 | D4 | [G,=B,]2 [G,B,]2 | [C,C][C,C] [D,=B,][E,C] | [F,D]2 [F,C]2 | %31
 [B,,B,]4- | [B,,B,]4 |] %33
V:4
 z2 B,,2 | x4 | x4 | z2 F,,2 | x4 | x4 | x4 | x4 | x4 | x4 | x4 | x4 | x4 | x4 | x4 | %15
 F,F,/F,/ F,F, | x4 | x4 | x4 | x4 | x4 | x4 | x4 | x4 | x4 | x4 | x4 | x4 | x4 | x4 | x4 | x4 | %32
 x4 |] %33

